dist/svg/align-right.svg

<!-- Generated by Trend Micro Style Portal -->
<svg version="1.1" xmlns="http://www.w3.org/2000/svg" width="16" height="16" viewBox="0 0 16 16">
  <title>align-right</title>
  <path fill="rgb(34,34,34)" d="M14 5h-9v-2h9zM14 9h-9v2h9zM14 6h-11v2h11zM14 12h-12v2h12z"></path>
</svg>

<svg width="16" height="16" viewBox="0 0 16 16" fill="rgb(34, 34, 34)" xmlns="http://www.w3.org/2000/svg"><title>align-right</title><path d="M14 5H5V3H14V5ZM14 9H5V11H14V9ZM14 6H3V8H14V6ZM14 12H2V14H14V12Z" fill="rgb(34, 34, 34)" fill-opacity="1.00"/></svg>
